!!!OTL: Ich war ein rechter Faselhans (1-37), S. 96f
!!!id: K1085
**kern
*clefG2
*k[b-]
*F:
{8c
=1
8f
8f
8f
8f
=2
8e
8f
8g
8c
=3
8g
8g
8f
8g
=4
4a}
8r
=5
{8c
=6
8f
8g
8a
8f
=7
8d
8d
8d
8d
=8
8b-
8g
8e
8g
=9
4f}
8r
=10
{8cc
=11
8b
8g
8g
8dd
=12
8cc
8g
8g
8cc
=13
8b
8cc
8ff
8dd
=14
4cc}
8r
=15
{8b-
=16
8a
8a
8b-
8a
=17
8b-
8cc
8dd
8dd
=18
8cc
8b-
8g
8e
=19
4cc}
8r
=20
{8cc
=21
8b-
8g
8e
8c
=22
4a
8r
8a
=23
8g
8f
8e
8g
=24
4f}
8r
=25
{16a
16b-
=26
8cc
8cc
8cc
8ff
=27
4cc
8r
16a
16a
=28
8b-
8b-
8g
8g
=29
4a}
8r
=30
{16a
16b-
=31
8cc
8cc
8cc
8ff
=32
4cc
8r
16a
16a
=33
8b-
8b-
8g
8cc
=34
4f}
8r
==
*-
!!!minrhy: 16
!!!meters: 2/4 ]  ZZ[7
!!!cut: Ich war ein rechter Faselhans (1-37), S. 96f
!!!reg: Luxemburg
!!!trd: KINTZELE, Guillaume: An der Ucht, Bd. 1, Luxemburg 1926
!!!rhy1: X_  X_X_X_X_  X_X_X_X_  X_X_X_X_  X__0   (x2)
!!!rhy2: X_  X_X_X_X_  X_X_X_X_  X_X_X_X_  X__0
!!!key: K1085  16  F 2/4 ]  ZZ[7
!!!mod: ACHTTONSKALA DUR ?]  AMBITUS[11
!!!kad: 3155131
!!!akz: 1-723_1-641_4#54#5_3455_4321_5543_5541_
!!!fot: 'a__b__c__d__e__f__fw_
!!!for: 'a__a__a__a__b__c__c__
!!!fok: '/__^a_S__~a_\__^__^d_
!! PHRAS[AUFTAKTIG]
!!!fkt: Spa&szlig;-, Spottlied
!!!bem: in der Quelle mit einer 2. Stimme versehen
!! KINTZELE
!! PR[38] 2K[0] 2G[4] 3K[0] 3G[4] 4A[4] 4Ü[0] 5A[2] 6K[0] 6G[4]
!! 7K[0] 7G[0] 8A[0] MEHR[0] SI[18] ABS[50] SR[4] SP[14]
!! ST[8] 2k[4] 2g[28] 3k[4] 3g[4] 4d[4] 4ü[0] 5d[0] 6k[0] 6g[0]
!! 7k[0] 7g[0] 8d[0] mehr[0] si[44] dm[-26] sr[32] sp[12]
!! 1F[0] 2F[84] 3F[16] 4F[0] LF[0] 2P[0] 3P[0] 4P[0] TRI[0] DF[2] AB[55]
!! TF[0] U3K[0] U3[0] U4[0] U4Ü[0] U5[0] U6K[0] U6[0] U7K[0] U7[0]
!! N1[16] N2K[0] N2[4] N3K[0] N3[8] N4[4] N4Ü[0] N5[29] N6K[0] N6[24]
!!!n7k: 0] N7[8] O1[8] O2K[0] O2[0] O3K[0] O3[0] HÖ[0
!!!RNB: symbol: &szlig; = sz ligature (UTF-8: ÃŸ)
